public/cards/2-C.svg

<?xml version="1.0" encoding="UTF-8"?>
<svg width="360px" height="540px" viewBox="0 0 360 540" version="1.1" xmlns="http://www.w3.org/2000/svg" xmlns:xlink="http://www.w3.org/1999/xlink">
    <!-- Generator: Sketch 55.2 (78181) - https://sketchapp.com -->
    <title>2-C</title>
    <desc>Created with Sketch.</desc>
    <g id="Page-1" stroke="none" stroke-width="1" fill="none" fill-rule="evenodd">
        <g id="English_pattern_playing_cards_deck" transform="translate(-390.000000, -1.000000)" fill-rule="nonzero">
            <g id="2-C" transform="translate(390.000000, 0.637820)">
                <rect id="rect6472-07" stroke="#000000" stroke-width="0.99999976" fill="#FFFFFF" x="0.5" y="0.86218" width="359" height="539" rx="29.944447"></rect>
                <path d="M30,30.36208 C24.46,30.36208 20,34.82208 20,40.36208 L20,45.36208 L25,45.36208 L25,40.36208 C25,37.59208 27.23,35.36208 30,35.36208 C32.77,35.36208 35,37.59208 35,40.36208 L35,45.36208 C35,46.48958 34.62492,48.42748 34,49.26208 C29.53673,58.36623 24.72176,66.39073 20,75.36208 L20,80.36208 L30,80.36208 L40,80.36208 L40,75.36208 L40,70.36208 L35,70.36208 L35,75.36208 L30,75.36208 L25.5,75.36208 C29.98873,67.44664 33.71831,59.79024 38,51.76208 C39.25012,50.09278 40,47.61728 40,45.36208 L40,40.36208 C40,34.82208 35.54,30.36208 30,30.36208 Z" id="rect3163-52-9-8-1-38" fill="#000000"></path>
                <path d="M330,510.3622 C335.54,510.3622 340,505.9022 340,500.3622 L340,495.3622 L335,495.3622 L335,500.3622 C335,503.1322 332.77,505.3622 330,505.3622 C327.23,505.3622 325,503.1322 325,500.3622 L325,495.3622 C325,494.2347 325.37508,492.2968 326,491.4622 C330.46327,482.35806 335.27824,474.33356 340,465.36216 L340,460.36216 L330,460.36216 L320,460.36216 L320,465.36216 L320,470.36216 L325,470.36216 L325,465.36216 L330,465.36216 L334.5,465.36216 C330.01127,473.27766 326.28169,480.93406 322,488.9622 C320.74988,490.6315 320,493.107 320,495.3622 L320,500.3622 C320,505.9022 324.46,510.3622 330,510.3622 Z" id="rect3163-52-9-8-1-38-8" fill="#000000"></path>
                <path d="M32.5,118.36218 C33,120.36218 35,125.36218 38.5,125.36218 C43,125.36218 45,121.36218 45,116.36218 C45,112.86218 43.710525,110.55604 42.5,107.86218 C41.21106,104.99382 39.31034,102.43348 37.5,99.86218 C35.17735,96.56323 30,90.36218 30,90.36218 C30,90.36218 24.82265,96.56323 22.5,99.86218 C20.68966,102.43348 18.78894,104.99382 17.5,107.86218 C16.289475,110.55604 15,112.86218 15,116.36218 C15,121.36218 17,125.36218 21.5,125.36218 C25,125.36218 27,120.36218 27.5,118.36218 C28,117.86218 28,118.36218 28,118.86218 C27.5,122.86218 27.5,123.86218 27,126.86218 C26.5,129.86218 25,135.36218 25,135.36218 C27.5,134.36218 32.5,134.36218 35,135.36218 C35,135.36218 33.5,129.86218 33,126.86218 C32.5,123.86218 32.5,122.86218 32,118.86218 C32,118.36218 32,117.86218 32.5,118.36218 Z" id="path3037-7-4-0" fill="#000000"></path>
                <path d="M332.5,422.36218 C333,420.36218 335,415.36218 338.5,415.36218 C343,415.36218 345,419.36218 345,424.36218 C345,427.86218 343.71053,430.16832 342.5,432.86218 C341.21106,435.73054 339.31034,438.29088 337.5,440.86218 C335.17735,444.16113 330,450.36218 330,450.36218 C330,450.36218 324.82265,444.16113 322.5,440.86218 C320.68966,438.29088 318.78894,435.73054 317.5,432.86218 C316.28947,430.16832 315,427.86218 315,424.36218 C315,419.36218 317,415.36218 321.5,415.36218 C325,415.36218 327,420.36218 327.5,422.36218 C328,422.86218 328,422.36218 328,421.86218 C327.5,417.86218 327.5,416.86218 327,413.86218 C326.5,410.86218 325,405.36218 325,405.36218 C327.5,406.36218 332.5,406.36218 335,405.36218 C335,405.36218 333.5,410.86218 333,413.86218 C332.5,416.86218 332.5,417.86218 332,421.86218 C332,422.36218 332,422.86218 332.5,422.36218 Z" id="path3037-7-4-1-3" fill="#000000"></path>
                <path d="M185,101.36218 C186,105.36218 190,115.36218 197,115.36218 C206,115.36218 210,107.36218 210,97.36218 C210,90.36218 207.42105,85.74989 205,80.36218 C202.42212,74.62545 198.62068,69.50477 195,64.36218 C190.3547,57.76428 180,45.36218 180,45.36218 C180,45.36218 169.6453,57.76428 165,64.36218 C161.37932,69.50477 157.57788,74.62545 155,80.36218 C152.57895,85.74989 150,90.36218 150,97.36218 C150,107.36218 154,115.36218 163,115.36218 C170,115.36218 174,105.36218 175,101.36218 C176,100.36218 176,101.36218 176,102.36218 C175,110.36218 175,112.36218 174,118.36218 C173,124.36218 170,135.36218 170,135.36218 C175,133.36218 185,133.36218 190,135.36218 C190,135.36218 187,124.36218 186,118.36218 C185,112.36218 185,110.36218 184,102.36218 C184,101.36218 184,100.36218 185,101.36218 Z" id="path3037-7-40" fill="#000000"></path>
                <path d="M185,439.3622 C186,435.3622 190,425.3622 197,425.3622 C206,425.3622 210,433.3622 210,443.3622 C210,450.3622 207.42105,454.97449 205,460.3622 C202.42212,466.09893 198.62068,471.21961 195,476.3622 C190.3547,482.9601 180,495.3622 180,495.3622 C180,495.3622 169.6453,482.9601 165,476.3622 C161.37932,471.21961 157.57788,466.09893 155,460.3622 C152.57895,454.97449 150,450.3622 150,443.3622 C150,433.3622 154,425.3622 163,425.3622 C170,425.3622 174,435.3622 175,439.3622 C176,440.3622 176,439.3622 176,438.3622 C175,430.3622 175,428.3622 174,422.3622 C173,416.3622 170,405.36218 170,405.36218 C175,407.36218 185,407.36218 190,405.36218 C190,405.36218 187,416.3622 186,422.3622 C185,428.3622 185,430.3622 184,438.3622 C184,439.3622 184,440.3622 185,439.3622 Z" id="path3037-7-7-0" fill="#000000"></path>
            </g>
        </g>
    </g>
</svg>

<svg width="360" height="540" xmlns="http://www.w3.org/2000/svg"><g transform="translate(0 -.362)" fill-rule="nonzero" fill="none"><rect stroke="#000" fill="#FFF" x=".5" y=".862" width="359" height="539" rx="29.944"/><path d="M30 30.362c-5.54 0-10 4.46-10 10v5h5v-5c0-2.77 2.23-5 5-5s5 2.23 5 5v5c0 1.128-.375 3.065-1 3.9-4.463 9.104-9.278 17.129-14 26.1v5h20v-10h-5v5h-9.5c4.489-7.915 8.218-15.572 12.5-23.6 1.25-1.67 2-4.145 2-6.4v-5c0-5.54-4.46-10-10-10zM330 510.362c5.54 0 10-4.46 10-10v-5h-5v5c0 2.77-2.23 5-5 5s-5-2.23-5-5v-5c0-1.127.375-3.065 1-3.9 4.463-9.104 9.278-17.128 14-26.1v-5h-20v10h5v-5h9.5c-4.489 7.916-8.218 15.572-12.5 23.6-1.25 1.67-2 4.145-2 6.4v5c0 5.54 4.46 10 10 10zM32.5 118.362c.5 2 2.5 7 6 7 4.5 0 6.5-4 6.5-9 0-3.5-1.29-5.806-2.5-8.5-1.289-2.868-3.19-5.429-5-8-2.323-3.299-7.5-9.5-7.5-9.5s-5.177 6.201-7.5 9.5c-1.81 2.571-3.711 5.132-5 8-1.21 2.694-2.5 5-2.5 8.5 0 5 2 9 6.5 9 3.5 0 5.5-5 6-7 .5-.5.5 0 .5.5-.5 4-.5 5-1 8s-2 8.5-2 8.5c2.5-1 7.5-1 10 0 0 0-1.5-5.5-2-8.5s-.5-4-1-8c0-.5 0-1 .5-.5zM332.5 422.362c.5-2 2.5-7 6-7 4.5 0 6.5 4 6.5 9 0 3.5-1.29 5.806-2.5 8.5-1.289 2.869-3.19 5.429-5 8-2.323 3.3-7.5 9.5-7.5 9.5s-5.177-6.2-7.5-9.5c-1.81-2.571-3.711-5.131-5-8-1.21-2.694-2.5-5-2.5-8.5 0-5 2-9 6.5-9 3.5 0 5.5 5 6 7 .5.5.5 0 .5-.5-.5-4-.5-5-1-8s-2-8.5-2-8.5c2.5 1 7.5 1 10 0 0 0-1.5 5.5-2 8.5s-.5 4-1 8c0 .5 0 1 .5.5zM185 101.362c1 4 5 14 12 14 9 0 13-8 13-18 0-7-2.579-11.612-5-17-2.578-5.737-6.38-10.857-10-16-4.645-6.598-15-19-15-19s-10.355 12.402-15 19c-3.62 5.143-7.422 10.263-10 16-2.421 5.388-5 10-5 17 0 10 4 18 13 18 7 0 11-10 12-14 1-1 1 0 1 1-1 8-1 10-2 16s-4 17-4 17c5-2 15-2 20 0 0 0-3-11-4-17s-1-8-2-16c0-1 0-2 1-1zM185 439.362c1-4 5-14 12-14 9 0 13 8 13 18 0 7-2.579 11.612-5 17-2.578 5.737-6.38 10.858-10 16-4.645 6.598-15 19-15 19s-10.355-12.402-15-19c-3.62-5.142-7.422-10.263-10-16-2.421-5.388-5-10-5-17 0-10 4-18 13-18 7 0 11 10 12 14 1 1 1 0 1-1-1-8-1-10-2-16s-4-17-4-17c5 2 15 2 20 0 0 0-3 11-4 17s-1 8-2 16c0 1 0 2 1 1z" fill="#000"/></g></svg>
